;FLAVOR:Marlin
;TIME:4279
;Filament used: 1.96945m
;Layer height: 0.1
;MINX:79.685
;MINY:80.296
;MINZ:0.3
;MAXX:140.22
;MAXY:136.338
;MAXZ:33.7
;Generated with Cura_SteamEngine 4.6.1
M140 S60
M105
M190 S60
M104 S210
M105
M109 S210
M82 ;absolute extrusion mode
G21 ;metric values
G90 ;absolute positioning
M82 ;set extruder to absolute mode
M107 ;start with the fan off
G28 X0 Y0 ;move X/Y to min endstops
G28 Z0 ;move Z to min endstops
G1 Z15.0 F9000 ;move the platform down 15mm
G92 E0 ;zero the extruded length
G1 F200 E3 ;extrude 3mm of feed stock
G92 E0 ;zero the extruded length again
G1 F9000
;Put printing message on LCD screen
M117 Printing...
G92 E0
G92 E0
G1 F1500 E-6.5
;LAYER_COUNT:335
;LAYER:0
M107
G0 F3600 X135.4 Y80.708 Z0.3
;TYPE:SKIRT
G1 F1500 E0
G1 F1800 X136.102 Y80.718 E0.03503
G1 X136.731 Y80.791 E0.06662
G1 X137.378 Y80.955 E0.09992
G1 X137.642 Y81.047 E0.11387
G1 X138.105 Y81.251 E0.13911
G1 X138.53 Y81.525 E0.16434
G1 X138.906 Y81.862 E0.18953
G1 X139.225 Y82.255 E0.21478
G1 X139.478 Y82.692 E0.23997
G1 X139.659 Y83.165 E0.26524
G1 X139.779 Y83.821 E0.29851
G1 X139.821 Y84.624 E0.33863
G1 X139.765 Y88.398 E0.52693
G1 X139.745 Y89.116 E0.56277
G1 X139.712 Y89.616 E0.58777
G1 X139.623 Y90.378 E0.62604
G1 X139.455 Y91.395 E0.67747
G1 X139.263 Y92.393 E0.72817
G1 X139.151 Y92.935 E0.75578
G1 X138.954 Y93.766 E0.79839
G1 X138.807 Y94.297 E0.82588
G1 X138.653 Y94.807 E0.85246
G1 X138.35 Y95.762 E0.90244
G1 X138.178 Y96.28 E0.92967
G1 X137.871 Y97.118 E0.9742
G1 X137.679 Y97.594 E0.99981
G1 X137.447 Y98.123 E1.02862
G1 X137.068 Y98.963 E1.0746
G1 X136.8 Y99.537 E1.1062
G1 X136.42 Y100.289 E1.14824
G1 X136.169 Y100.747 E1.1743
G1 X135.89 Y101.223 E1.20182
G1 X135.403 Y102.035 E1.24906
G1 X135.099 Y102.527 E1.27791
G1 X134.586 Y103.3 E1.3242
G1 X134.236 Y103.789 E1.3542
G1 X133.363 Y104.926 E1.42572
G1 X133.036 Y105.338 E1.45196
G1 X132.409 Y106.077 E1.50031
G1 X132.055 Y106.468 E1.52663
G1 X131 Y107.553 E1.60213
G1 X130.577 Y107.97 E1.63176
G1 X129.858 Y108.638 E1.68072
G1 X127.937 Y110.356 E1.8093
G1 X125.942 Y112.243 E1.9463
G1 X124.033 Y114.153 E2.08103
G1 X122.15 Y116.146 E2.21782
G1 X120.297 Y118.223 E2.35668
G1 X118.554 Y120.291 E2.49162
G1 X116.548 Y122.815 E2.65246
G1 X116.203 Y123.185 E2.6777
G1 X115.591 Y123.625 E2.71531
G1 X115.054 Y123.876 E2.74488
G1 X114.567 Y124.009 E2.77007
G1 X114.01 Y124.066 E2.798
G1 X113.347 Y124.075 E2.83108
G1 X97.706 Y124.076 E3.61141
G1 X96.971 Y124.066 E3.64809
G1 X96.468 Y124.018 E3.6733
G1 X95.979 Y123.892 E3.69849
G1 X95.515 Y123.691 E3.72372
G1 X95.089 Y123.419 E3.74893
G1 X94.641 Y123.015 E3.77903
G1 X94.313 Y122.63 E3.80426
G1 X93.986 Y122.102 E3.83525
G1 X93.751 Y121.611 E3.86241
G1 X93.497 Y120.916 E3.89932
G1 X92.565 Y118.342 E4.0359
G1 X91.558 Y115.79 E4.17277
G1 X90.481 Y113.274 E4.30931
G1 X89.338 Y110.795 E4.4455
G1 X88.113 Y108.325 E4.58305
G1 X86.833 Y105.918 E4.71906
G1 X85.096 Y102.893 E4.89309
G1 X84.524 Y101.936 E4.94872
G1 X84.088 Y101.186 E4.992
G1 X83.371 Y99.902 E5.06537
G1 X83.114 Y99.397 E5.09364
G1 X82.843 Y98.795 E5.12657
G1 X82.551 Y98.123 E5.16313
G1 X81.941 Y96.644 E5.24294
G1 X81.768 Y96.178 E5.26774
G1 X81.582 Y95.591 E5.29846
G1 X81.333 Y94.763 E5.3416
G1 X80.931 Y93.339 E5.41542
G1 X80.807 Y92.824 E5.44185
G1 X80.687 Y92.206 E5.47326
G1 X80.553 Y91.458 E5.51117
G1 X80.296 Y89.827 E5.59354
G1 X80.196 Y88.78 E5.64602
G1 X80.15 Y87.999 E5.68505
G1 X80.084 Y86.312 E5.76928
G1 X80.12 Y85.58 E5.80584
G1 X80.254 Y84.755 E5.84754
G1 X80.439 Y83.834 E5.89441
G1 X80.49 Y83.6 E5.90636
G1 X80.639 Y83.116 E5.93162
G1 X80.861 Y82.663 E5.95679
G1 X81.152 Y82.249 E5.98204
G1 X81.505 Y81.887 E6.00726
G1 X81.911 Y81.585 E6.03251
G1 X82.358 Y81.351 E6.05768
G1 X83.146 Y81.095 E6.09901
G1 X83.641 Y80.989 E6.12427
G1 X84.006 Y80.962 E6.14253
G1 X84.871 Y80.948 E6.18569
G1 X89.778 Y80.947 E6.4305
G1 X90.536 Y80.957 E6.46832
G1 X91.255 Y81.037 E6.50441
G1 X91.762 Y81.126 E6.53009
G1 X94.141 Y81.535 E6.65052
G1 X96.885 Y81.929 E6.78883
G1 X99.585 Y82.239 E6.92442
G1 X102.291 Y82.472 E7.05992
G1 X105.045 Y82.632 E7.19755
G1 X107.795 Y82.713 E7.3348
G1 X110.512 Y82.717 E7.47036
G1 X113.265 Y82.642 E7.60776
G1 X115.977 Y82.492 E7.74326
G1 X118.731 Y82.261 E7.88114
G1 X121.45 Y81.956 E8.01765
G1 X124.125 Y81.578 E8.15243
G1 X126.878 Y81.11 E8.29175
G1 X128.648 Y80.766 E8.38171
G1 X129.186 Y80.708 E8.4087
G1 X129.754 Y80.696 E8.43705
G1 X131.011 Y80.7 E8.49976
G1 X135.4 Y80.708 E8.71873
G0 F3600 X135.401 Y80.308
G1 F1800 X136.108 Y80.318 E8.754
G1 X136.816 Y80.4 E8.78956
G1 X137.51 Y80.578 E8.8253
G1 X137.774 Y80.67 E8.83925
G1 X138.266 Y80.883 E8.866
G1 X138.72 Y81.168 E8.89274
G1 X139.128 Y81.516 E8.9195
G1 X139.479 Y81.922 E8.94627
G1 X139.765 Y82.375 E8.973
G1 X139.982 Y82.866 E8.99978
G1 X140.123 Y83.383 E9.02652
G1 X140.2 Y84.073 E9.06116
G1 X140.22 Y84.612 E9.08806
G1 X140.165 Y88.405 E9.27732
G1 X140.145 Y89.127 E9.31335
G1 X140.11 Y89.663 E9.34015
G1 X140.021 Y90.425 E9.37843
G1 X139.849 Y91.465 E9.43102
G1 X139.656 Y92.469 E9.48202
G1 X139.543 Y93.017 E9.50994
G1 X139.343 Y93.86 E9.55316
G1 X139.19 Y94.413 E9.58179
G1 X139.034 Y94.928 E9.60864
G1 X138.731 Y95.883 E9.65862
G1 X138.557 Y96.406 E9.68612
G1 X138.246 Y97.256 E9.73128
G1 X138.045 Y97.755 E9.75811
G1 X137.813 Y98.284 E9.78693
G1 X137.432 Y99.128 E9.83313
G1 X137.162 Y99.706 E9.86496
G1 X136.776 Y100.47 E9.90766
G1 X136.514 Y100.949 E9.9349
G1 X136.235 Y101.425 E9.96243
G1 X135.746 Y102.241 E10.00989
G1 X135.439 Y102.737 E10.03899
G1 X134.918 Y103.522 E10.086
G1 X134.627 Y103.932 E10.11108
G1 X133.68 Y105.169 E10.1888
G1 X133.35 Y105.587 E10.21537
G1 X132.713 Y106.337 E10.26447
G1 X132.344 Y106.744 E10.29187
G1 X131.286 Y107.833 E10.36762
G1 X130.849 Y108.263 E10.39821
G1 X130.13 Y108.931 E10.44717
G1 X128.213 Y110.645 E10.57547
G1 X126.235 Y112.516 E10.7113
G1 X124.324 Y114.428 E10.84617
G1 X122.423 Y116.44 E10.98427
G1 X120.618 Y118.464 E11.11957
G1 X118.857 Y120.552 E11.25584
G1 X116.861 Y123.064 E11.41591
G1 X116.497 Y123.458 E11.44267
G1 X116.079 Y123.793 E11.46939
G1 X115.708 Y124.017 E11.49102
G1 X115.221 Y124.241 E11.51776
G1 X114.706 Y124.389 E11.54449
G1 X114.016 Y124.466 E11.57913
G1 X113.353 Y124.475 E11.61221
G1 X97.706 Y124.476 E12.39284
G1 X96.966 Y124.466 E12.42977
G1 X96.432 Y124.418 E12.45651
G1 X95.91 Y124.291 E12.48332
G1 X95.414 Y124.089 E12.51004
G1 X94.953 Y123.815 E12.53679
G1 X94.472 Y123.412 E12.5681
G1 X94.009 Y122.891 E12.60287
G1 X93.641 Y122.305 E12.63739
G1 X93.376 Y121.752 E12.66799
G1 X93.119 Y121.047 E12.70542
G1 X92.193 Y118.489 E12.84115
G1 X91.19 Y115.945 E12.97758
G1 X90.114 Y113.433 E13.11391
G1 X88.975 Y110.962 E13.24966
G1 X87.752 Y108.497 E13.38694
G1 X86.491 Y106.127 E13.52088
G1 X84.753 Y103.098 E13.6951
G1 X84.181 Y102.141 E13.75073
G1 X83.742 Y101.387 E13.79426
G1 X83.022 Y100.097 E13.86796
G1 X82.749 Y99.561 E13.89797
G1 X82.478 Y98.959 E13.93091
G1 X82.184 Y98.282 E13.96773
G1 X81.571 Y96.796 E14.04793
G1 X81.387 Y96.298 E14.07441
G1 X81.201 Y95.711 E14.10513
G1 X80.95 Y94.878 E14.14854
G1 X80.546 Y93.447 E14.22272
G1 X80.414 Y92.9 E14.2508
G1 X80.294 Y92.282 E14.2822
G1 X80.159 Y91.528 E14.32042
G1 X79.901 Y89.889 E14.4032
G1 X79.842 Y89.399 E14.42782
G1 X79.797 Y88.811 E14.45724
G1 X79.751 Y88.022 E14.49667
G1 X79.685 Y86.327 E14.5813
G1 X79.721 Y85.549 E14.62015
G1 X79.861 Y84.683 E14.66392
G1 X80.047 Y83.755 E14.71114
G1 X80.1 Y83.513 E14.7235
G1 X80.255 Y83 E14.75023
G1 X80.484 Y82.515 E14.77699
G1 X80.783 Y82.07 E14.80374
G1 X81.145 Y81.674 E14.83051
G1 X81.562 Y81.336 E14.85729
G1 X82.024 Y81.064 E14.88403
G1 X82.588 Y80.843 E14.91426
G1 X83.032 Y80.711 E14.93737
G1 X83.556 Y80.597 E14.96412
G1 X84 Y80.562 E14.98634
G1 X84.865 Y80.548 E15.0295
G1 X89.778 Y80.547 E15.27461
G1 X90.542 Y80.557 E15.31273
G1 X91.316 Y80.641 E15.35157
G1 X94.224 Y81.143 E15.4988
G1 X96.916 Y81.53 E15.63448
G1 X99.597 Y81.838 E15.76912
G1 X102.348 Y82.075 E15.90688
G1 X105.079 Y82.234 E16.04336
G1 X107.772 Y82.313 E16.17777
G1 X110.502 Y82.317 E16.31397
G1 X113.233 Y82.243 E16.45027
G1 X115.989 Y82.09 E16.58798
G1 X118.653 Y81.866 E16.72135
G1 X121.386 Y81.56 E16.85856
G1 X124.108 Y81.175 E16.99571
G1 X126.78 Y80.721 E17.13093
G1 X128.572 Y80.373 E17.222
G1 X129.177 Y80.308 E17.25236
G1 X129.755 Y80.296 E17.2812
G1 X131.012 Y80.3 E17.34391
G1 X135.401 Y80.308 E17.56288
G1 F1500 E11.06288
;MESH:Semi-Circular_Anet_A8_Fan_Duct.stl
G0 F3600 X135.393 Y83.242
G0 X135.392 Y84.327
G0 X134.809 Y85.707
;TYPE:WALL-INNER
G1 F1500 E17.56288
G1 F1800 X134.803 Y86.065 E17.58074
G1 X134.687 Y85.753 E17.58315
G1 X134.67 Y85.707
G1 X134.809 Y85.707 E17.58516
G0 F3600 X132.276 Y93.52
G0 X128.945 Y100.048
G0 X117.31 Y111.517
G0 X114.742 Y112.133
G0 X114.107 Y112.707
G0 X112.709 Y118.873
G1 F1800 X112.71 Y118.874 E17.58523
G1 X112.711 Y119.075 E17.59526
G1 X112.51 Y119.075 E17.60174
G1 X112.509 Y119.075 E17.60179
G1 X98.477 Y119.076 E18.30185
G1 X98.277 Y119.076 E18.31183
G1 X98.277 Y118.876 E18.31829
G1 X98.301 Y112.914 E18.61574
G1 X98.302 Y111.119 E18.70529
G1 X98.277 Y109.38 E18.79206
G1 X98.241 Y109.256 E18.7985
G1 X98.162 Y108.614 E18.83077
G1 X97.538 Y107.894 E18.87831
G1 X96.375 Y107.146 E18.94729
G1 X96.248 Y107.056 E18.95506
G1 X95.648 Y106.63 E18.99177
G1 X95.325 Y106.408 E19.01132
G1 X95.071 Y106.232 E19.02674
G1 X94.47 Y105.733 E19.06571
G1 X93.328 Y104.784 E19.13979
G1 X92.83 Y104.34 E19.17308
G1 X91.282 Y102.714 E19.28508
G1 X90.827 Y102.201 E19.31929
G1 X90.529 Y101.804 E19.34406
G1 X89.835 Y100.879 E19.40175
G1 X89.483 Y100.41 E19.43101
G1 X89.228 Y100.044 E19.45326
G1 X89.099 Y99.859 E19.46451
G1 X87.992 Y97.951 E19.57457
G1 X87.647 Y97.309 E19.61093
G1 X86.781 Y95.309 E19.71966
G1 X86.672 Y95.031 E19.73456
G1 X86.509 Y94.612 E19.75699
G1 X86.305 Y93.932 E19.79241
G1 X86.001 Y92.92 E19.84512
G1 X85.882 Y92.525 E19.86571
G1 X85.699 Y91.829 E19.90161
G1 X85.306 Y89.619 E20.0136
G1 X85.214 Y88.951 E20.04724
G1 X85.125 Y87.439 E20.1228
G1 X85.086 Y86.775 E20.15599
G1 X85.077 Y86.236 E20.18288
G1 X85.075 Y86.169 E20.18623
G1 X85.12 Y85.948 E20.19748
G1 X85.223 Y85.948 E20.20262
G1 X85.209 Y85.984
G1 X85.124 Y86.189 E20.2046
G1 X85.105 Y86.235
G1 X85.277 Y86.704 E20.21134
G1 X85.506 Y87.328 E20.23641
G1 X85.61 Y87.609 E20.25136
G1 X86.504 Y88.392 E20.31065
G1 X87.401 Y88.857 E20.36106
G1 X88.089 Y89.096 E20.3974
G1 X88.8 Y89.255 E20.43374
G1 X89.23 Y89.372 E20.45598
G1 X89.287 Y89.387 E20.45892
G1 X89.593 Y89.426 E20.47431
G1 X89.623 Y89.616 E20.4839
G1 X89.445 Y89.704 E20.48995
G1 X89.392 Y89.73 E20.49274
G1 X88.78 Y90.035 E20.52685
G1 X88.23 Y90.393 E20.55959
G1 X87.334 Y91.132 E20.61754
G1 X86.887 Y91.656 E20.6519
G1 X86.42 Y92.493 E20.69972
G1 X86.391 Y92.875 E20.71883
G1 X86.314 Y93.929 E20.7462
G1 X86.719 Y94.447 E20.75704
G1 X86.996 Y94.801 E20.77578
G1 X87.213 Y95.077 E20.79329
G1 X88.307 Y95.549 E20.85274
G1 X89.307 Y95.713 E20.90329
G1 X90.032 Y95.727 E20.93947
G1 X90.806 Y95.658 E20.97824
G1 X91.203 Y95.637 E20.99807
G1 X91.267 Y95.634 E21.00127
G1 X91.566 Y95.577 E21.01646
G1 X91.653 Y95.747 E21.02598
G1 X91.514 Y95.884 E21.03185
G1 X91.469 Y95.928 E21.0348
G1 X90.981 Y96.409 E21.06899
G1 X90.569 Y96.919 E21.1017
G1 X89.944 Y97.9 E21.15973
G1 X89.687 Y98.532 E21.19377
G1 X89.493 Y99.469 E21.24151
G1 X89.605 Y99.92 E21.26469
G1 X89.712 Y100.353 E21.28243
G1 X89.841 Y100.873 E21.29005
G1 X90.801 Y101.517 E21.31986
G1 X91.053 Y101.687 E21.33503
G1 X92.235 Y101.797 E21.39425
G1 X93.239 Y101.645 E21.44491
G1 X93.931 Y101.433 E21.48102
G1 X94.654 Y101.126 E21.52021
G1 X95.019 Y100.988 E21.53968
G1 X95.079 Y100.965 E21.54288
G1 X95.345 Y100.817 E21.55807
G1 X95.48 Y100.952 E21.56759
G1 X95.39 Y101.126 E21.57346
G1 X95.36 Y101.183 E21.57648
G1 X95.046 Y101.787 E21.61045
G1 X94.808 Y102.401 E21.6433
G1 X94.521 Y103.523 E21.70108
G1 X94.467 Y104.208 E21.73536
G1 X94.577 Y105.16 E21.78317
G1 X94.783 Y105.49 E21.80258
G1 X95.196 Y106.154 E21.82941
G1 X95.34 Y106.385 E21.83188
G1 X95.689 Y106.485 E21.83552
G1 X96.396 Y106.689 E21.86091
G1 X96.739 Y106.788 E21.87872
G1 X97.905 Y106.522 E21.93839
G1 X98.808 Y106.071 E21.98875
G1 X99.404 Y105.658 E22.02492
G1 X100.008 Y105.128 E22.06501
G1 X100.266 Y104.922 E22.08148
G1 X100.348 Y104.856 E22.08673
G1 X100.427 Y104.771 E22.09252
G1 X100.543 Y104.647 E22.10099
G1 X100.687 Y104.72 E22.10905
G1 X100.646 Y104.917 E22.1149
G1 X100.636 Y104.965 E22.11584
G1 X100.629 Y105.07 E22.12109
G1 X100.54 Y106.248 E22.18002
G1 X100.554 Y106.955 E22.2153
G1 X100.729 Y108.036 E22.26994
G1 X101.213 Y109.071 E22.32694
G1 X102.096 Y109.763 E22.38291
G1 X102.927 Y109.965 E22.42558
G1 X103.938 Y109.772 E22.47693
G1 X104.61 Y109.377 E22.51581
G1 X105.349 Y108.705 E22.56565
G1 X105.886 Y108.021 E22.60903
G1 X106.193 Y107.548 E22.63717
G1 X106.537 Y106.868 E22.67518
G1 X106.649 Y106.645 E22.68763
G1 X106.885 Y106.683 E22.69956
G1 X106.923 Y106.93 E22.70964
G1 X107.042 Y107.698 E22.74841
G1 X107.255 Y108.44 E22.78692
G1 X107.545 Y109.161 E22.82569
G1 X107.999 Y109.948 E22.87102
G1 X108.51 Y110.496 E22.9084
G1 X109.389 Y110.99 E22.95871
G1 X110.248 Y111.059 E23.0017
G1 X111.335 Y110.656 E23.05954
G1 X112.118 Y109.763 E23.11879
G1 X112.582 Y108.866 E23.16918
G1 X112.822 Y108.178 E23.20553
G1 X112.981 Y107.467 E23.24188
G1 X113.098 Y107.037 E23.26411
G1 X113.113 Y106.98 E23.26705
G1 X113.155 Y106.649 E23.2837
G1 X113.332 Y106.624 E23.29261
G1 X113.43 Y106.822 E23.29918
G1 X113.456 Y106.875 E23.30197
G1 X113.761 Y107.487 E23.33608
G1 X114.12 Y108.038 E23.36889
G1 X114.858 Y108.932 E23.42673
G1 X115.382 Y109.376 E23.46099
G1 X116.219 Y109.851 E23.50901
G1 X116.674 Y109.883 E23.53176
G1 X116.937 Y109.901 E23.54491
G1 X117.658 Y109.952 E23.58098
G1 X118.563 Y109.241 E23.63839
G1 X118.802 Y109.053 E23.65356
G1 X119.274 Y107.961 E23.71292
G1 X119.439 Y106.96 E23.76353
G1 X119.453 Y106.234 E23.79976
G1 X119.383 Y105.469 E23.83808
G1 X119.362 Y105.06 E23.85851
G1 X119.36 Y105.001 E23.86146
G1 X119.303 Y104.701 E23.87669
G1 X119.476 Y104.614 E23.88635
G1 X119.611 Y104.75 E23.89215
G1 X119.652 Y104.791 E23.89488
G1 X120.2 Y105.343 E23.93369
G1 X120.808 Y105.814 E23.97206
G1 X121.468 Y106.231 E24.01101
G1 X122.3 Y106.601 E24.05644
G1 X123.04 Y106.746 E24.09406
G1 X123.577 Y106.679 E24.12106
G1 X124.024 Y106.624 E24.14353
G1 X124.678 Y106.236 E24.18146
G1 X124.761 Y106.187 E24.18627
G1 X125.262 Y105.438 E24.23123
G1 X125.412 Y105.214 E24.24468
G1 X125.522 Y104.031 E24.30395
G1 X125.37 Y103.031 E24.35442
G1 X125.161 Y102.335 E24.39067
G1 X124.843 Y101.592 E24.43099
G1 X124.713 Y101.249 E24.44929
G1 X124.691 Y101.19 E24.45243
G1 X124.532 Y100.903 E24.4688
G1 X124.661 Y100.779 E24.47773
G1 X124.852 Y100.878 E24.48406
G1 X124.908 Y100.907 E24.48703
G1 X125.513 Y101.221 E24.52103
G1 X126.127 Y101.459 E24.55389
G1 X127.248 Y101.746 E24.61162
G1 X127.933 Y101.8 E24.6459
G1 X128.886 Y101.69 E24.69376
G1 X129.21 Y101.488 E24.71281
G1 X130.115 Y100.927 E24.76593
G1 X130.199 Y100.628 E24.78142
G1 X130.391 Y99.949 E24.81663
G1 X130.407 Y99.892 E24.81958
G1 X130.504 Y99.551 E24.83727
G1 X130.285 Y98.43 E24.89425
G1 X129.797 Y97.458 E24.94851
G1 X129.384 Y96.862 E24.98469
G1 X128.856 Y96.262 E25.02456
G1 X128.627 Y95.976 E25.04284
G1 X128.582 Y95.919 E25.04647
G1 X128.399 Y95.749 E25.05893
G1 X128.359 Y95.711 E25.06168
G1 X128.442 Y95.547 E25.07085
G1 X128.566 Y95.569 E25.07436
G1 X128.634 Y95.579 E25.07573
G1 X128.706 Y95.59 E25.07912
G1 X129.382 Y95.694 E25.11324
G1 X130.029 Y95.731 E25.14557
G1 X131.187 Y95.658 E25.20346
G1 X131.854 Y95.497 E25.23769
G1 X132.726 Y95.1 E25.2855
G1 X133.03 Y94.74 E25.309
G1 X133.137 Y94.614 E25.31725
G1 X133.66 Y93.996 E25.35764
G1 X133.616 Y92.871 E25.41381
G1 X133.604 Y92.564 E25.42914
G1 X133.049 Y91.568 E25.48602
G1 X132.285 Y90.793 E25.54032
G1 X131.706 Y90.354 E25.57657
G1 X131.049 Y89.963 E25.61471
G1 X130.709 Y89.737 E25.63508
G1 X130.659 Y89.704 E25.63807
G1 X130.377 Y89.573 E25.65358
G1 X130.407 Y89.384 E25.66313
G1 X130.606 Y89.354 E25.66924
G1 X130.665 Y89.346 E25.67205
G1 X131.335 Y89.244 E25.70586
G1 X131.969 Y89.078 E25.73856
G1 X133.052 Y88.649 E25.79667
G1 X133.635 Y88.29 E25.83083
